(LLLLLLLLLLLLLLLLLLLLLLLLLLLLLLLLLLLLLLLLLLLLLLLLLLLLLLLLLLLLLLLLLL)
(Modelname default)
(Foil-file /home/xneb/Projects/py/RibCut/koord/ag25.dat)
(Chord 100.0)
(Trail-edge 1.0)
(Kerf width 1.0)
(Unit millimeter)
(NOTE 0,0 is the profile's datum point)
(Generated by RibCut.py.)
(Codebase by David the Swarfer 2017, modified by Fugoid Floyd 2021 )
(LLLLLLLLLLLLLLLLLLLLLLLLLLLLLLLLLLLLLLLLLLLLLLLLLLLLLLLLLLLLLLLLLL)
G21                               ; mm
G17                               ; xy plane
G90                               ; abs dist mode
(doing profile now)
G01 X-0.062 Y0.524
G01 X0.530 Y0.598
G01 X1.728 Y0.756
G01 X3.082 Y0.937
G01 X4.466 Y1.124
G01 X5.854 Y1.311
G01 X7.243 Y1.496
G01 X8.632 Y1.680
G01 X10.022 Y1.861
G01 X11.412 Y2.040
G01 X12.801 Y2.217
G01 X14.191 Y2.391
G01 X15.580 Y2.564
G01 X16.970 Y2.734
G01 X18.359 Y2.902
G01 X19.749 Y3.068
G01 X21.139 Y3.231
G01 X22.529 Y3.391
G01 X23.920 Y3.549
G01 X25.311 Y3.704
G01 X26.702 Y3.857
G01 X28.093 Y4.006
G01 X29.485 Y4.152
G01 X30.877 Y4.296
G01 X32.269 Y4.436
G01 X33.661 Y4.572
G01 X35.053 Y4.705
G01 X36.445 Y4.834
G01 X37.838 Y4.959
G01 X39.230 Y5.080
G01 X40.622 Y5.197
G01 X42.015 Y5.310
G01 X43.407 Y5.418
G01 X44.800 Y5.523
G01 X46.192 Y5.622
G01 X47.585 Y5.717
G01 X48.977 Y5.807
G01 X50.369 Y5.892
G01 X51.762 Y5.973
G01 X53.153 Y6.048
G01 X54.545 Y6.117
G01 X55.936 Y6.182
G01 X57.328 Y6.240
G01 X58.718 Y6.293
G01 X60.109 Y6.339
G01 X61.499 Y6.379
G01 X62.888 Y6.412
G01 X64.277 Y6.439
G01 X65.666 Y6.458
G01 X67.053 Y6.469
G01 X68.440 Y6.472
G01 X69.826 Y6.467
G01 X71.211 Y6.453
G01 X72.594 Y6.429
G01 X73.976 Y6.395
G01 X75.357 Y6.350
G01 X76.735 Y6.294
G01 X78.112 Y6.225
G01 X79.485 Y6.143
G01 X80.856 Y6.047
G01 X82.223 Y5.936
G01 X83.585 Y5.808
G01 X84.941 Y5.661
G01 X86.291 Y5.496
G01 X87.633 Y5.308
G01 X88.965 Y5.097
G01 X90.284 Y4.859
G01 X91.588 Y4.592
G01 X92.871 Y4.291
G01 X94.129 Y3.952
G01 X95.349 Y3.572
G01 X96.516 Y3.145
G01 X97.592 Y2.677
G01 X98.510 Y2.191
G01 X99.200 Y1.742
G01 X99.670 Y1.363
G01 X99.986 Y1.050
G01 X100.204 Y0.779
G01 X100.359 Y0.525
G01 X100.466 Y0.261
G01 X100.507 Y-0.039
G01 X100.438 Y-0.364
G01 X100.253 Y-0.645
G01 X100.008 Y-0.857
G01 X99.711 Y-1.035
G01 X99.320 Y-1.211
G01 X98.762 Y-1.400
G01 X97.953 Y-1.606
G01 X96.899 Y-1.805
G01 X95.696 Y-1.972
G01 X94.420 Y-2.105
G01 X93.109 Y-2.207
G01 X91.779 Y-2.283
G01 X90.436 Y-2.340
G01 X89.083 Y-2.379
G01 X87.724 Y-2.404
G01 X86.359 Y-2.418
G01 X84.990 Y-2.421
G01 X83.617 Y-2.415
G01 X82.242 Y-2.400
G01 X80.865 Y-2.378
G01 X79.486 Y-2.350
G01 X78.105 Y-2.316
G01 X76.722 Y-2.276
G01 X75.339 Y-2.233
G01 X73.954 Y-2.185
G01 X72.569 Y-2.133
G01 X71.182 Y-2.079
G01 X69.794 Y-2.022
G01 X68.405 Y-1.963
G01 X67.015 Y-1.902
G01 X65.623 Y-1.839
G01 X64.230 Y-1.775
G01 X62.836 Y-1.710
G01 X61.441 Y-1.644
G01 X60.045 Y-1.578
G01 X58.649 Y-1.512
G01 X57.254 Y-1.445
G01 X55.860 Y-1.379
G01 X54.467 Y-1.313
G01 X53.075 Y-1.248
G01 X51.685 Y-1.184
G01 X50.295 Y-1.121
G01 X48.906 Y-1.058
G01 X47.517 Y-0.997
G01 X46.128 Y-0.938
G01 X44.740 Y-0.880
G01 X43.353 Y-0.823
G01 X41.966 Y-0.769
G01 X40.580 Y-0.716
G01 X39.193 Y-0.665
G01 X37.808 Y-0.616
G01 X36.423 Y-0.569
G01 X35.038 Y-0.524
G01 X33.654 Y-0.482
G01 X32.270 Y-0.442
G01 X30.886 Y-0.405
G01 X29.502 Y-0.370
G01 X28.118 Y-0.337
G01 X26.733 Y-0.306
G01 X25.349 Y-0.279
G01 X23.964 Y-0.254
G01 X22.579 Y-0.232
G01 X21.194 Y-0.212
G01 X19.809 Y-0.197
G01 X18.423 Y-0.185
G01 X17.037 Y-0.177
G01 X15.651 Y-0.174
G01 X14.265 Y-0.176
G01 X12.879 Y-0.183
G01 X11.492 Y-0.195
G01 X10.106 Y-0.214
G01 X8.720 Y-0.240
G01 X7.334 Y-0.273
G01 X5.948 Y-0.313
G01 X4.561 Y-0.361
G01 X3.178 Y-0.416
G01 X1.819 Y-0.477
G01 X0.619 Y-0.537
G01 X-0.501 Y-0.594
G01 X-0.500 Y0.029
(Closing path at trailing edge)
M2                              ; END of program
